X: 7647
T: Cold Frosty Morning
R: reel
M: 4/4
K: Adorian
|:E2|EGAc A2 AB|cAcd e3 A|BABc BA GG|Bdde d2 E2|
EGAc A2 AB|cAcd e3 A|cBAc BAGB|1 A4 A2:|2 A4 A2 z2||
|:eg a2 a2 eg|abag edBd|eBfB g2 g2|edcd e4|
A2 A2 c2 c2|d2 d2 e3 B|cBAc BA GB|1 A4 A2 z2:|2 A4 A2||

